templates/_partials/svg/twitter.svg

<?xml version="1.0" encoding="UTF-8"?>
<svg width="24px" height="19px" viewBox="0 0 24 19" version="1.1" xmlns="http://www.w3.org/2000/svg" xmlns:xlink="http://www.w3.org/1999/xlink">
    <!-- Generator: Sketch 64 (93537) - https://sketch.com -->
    <title>logo-twitter</title>
    <desc>Created with Sketch.</desc>
    <g id="Boutique" stroke="none" stroke-width="1" fill="none" fill-rule="evenodd">
        <g id="Detail-Copy" transform="translate(-306.000000, -758.000000)" fill="#000000" fill-rule="nonzero">
            <g id="logo-twitter" transform="translate(306.000000, 758.000000)">
                <path d="M24,2.25130208 C23.0997281,2.63840356 22.1471933,2.89343401 21.1725,3.00833333 C22.1968342,2.41477093 22.9671594,1.47179077 23.339,0.35625 C22.3705478,0.916646891 21.3127784,1.30984775 20.211,1.51901042 C19.2733996,0.546615893 17.9736791,-0.00248406942 16.6155,-8.39175652e-06 C13.8945,-8.39175652e-06 11.6925,2.14739583 11.6925,4.79453125 C11.6905708,5.16273782 11.7332077,5.52984814 11.8195,5.88802083 C7.87420312,5.70499328 4.18944063,3.885396 1.6695,0.87578125 C1.23228742,1.60516363 1.00106606,2.43736552 1,3.28541667 C1,4.94791667 1.8765,6.41744792 3.2,7.27838542 C2.41586391,7.25996965 1.64779539,7.05459179 0.961,6.6796875 L0.961,6.7390625 C0.961,9.06458333 2.661,10.9992187 4.911,11.4395833 C4.48789169,11.5511995 4.05188407,11.6077525 3.614,11.6078125 C3.30328938,11.6083487 2.99328478,11.5785164 2.6885,11.51875 C3.314,13.4236979 5.1345,14.8091146 7.291,14.8486979 C5.53868927,16.1850928 3.38730924,16.907397 1.175,16.9020833 C0.782308994,16.9015054 0.389982789,16.8783762 0,16.8328125 C2.25058982,18.2549511 4.8667224,19.0071934 7.537,19.0000511 C16.605,19.0000511 21.559,11.6919271 21.559,5.35364583 C21.559,5.14583333 21.5535,4.93802083 21.5435,4.73515625 C22.5050447,4.05831051 23.3369017,3.21719043 24,2.25130208 Z" id="Path"></path>
            </g>
        </g>
    </g>
</svg>

<svg xmlns="http://www.w3.org/2000/svg" viewBox="0 0 24 19" aria-hidden="true"><path d="M24 2.251c-.9.387-1.853.642-2.828.757A4.835 4.835 0 0023.34.356a9.952 9.952 0 01-3.128 1.163A4.982 4.982 0 0016.616 0c-2.721 0-4.923 2.147-4.923 4.795-.002.368.04.735.127 1.093A14.087 14.087 0 011.67.876 4.697 4.697 0 001 3.286c0 1.662.877 3.131 2.2 3.992A4.915 4.915 0 01.961 6.68v.06c0 2.325 1.7 4.26 3.95 4.7-.423.111-.86.168-1.297.168-.31 0-.62-.03-.925-.09.625 1.906 2.446 3.291 4.602 3.33a10.048 10.048 0 01-6.116 2.054c-.393 0-.785-.024-1.175-.07A14.042 14.042 0 007.537 19c9.068 0 14.022-7.308 14.022-13.646 0-.208-.006-.416-.015-.619A9.87 9.87 0 0024 2.251z" fill="#000" fill-rule="nonzero"/></svg>
